src/assets/img/Icon/Favourite.svg

<?xml version="1.0" encoding="UTF-8"?>
<svg width="256px" height="256px" viewBox="0 0 256 256" version="1.1" xmlns="http://www.w3.org/2000/svg" xmlns:xlink="http://www.w3.org/1999/xlink">
    <!-- Generator: Sketch 57.1 (83088) - https://sketch.com -->
    <title>Icon / Favourite</title>
    <desc>Created with Sketch.</desc>
    <g id="Icon-/-Favourite" stroke="none" stroke-width="1" fill="none" fill-rule="evenodd">
        <path d="M128.304862,64.4024638 L142.782219,50.2949292 C166.666241,27.0210212 204.821679,27.2678324 228.402618,50.8487711 C228.56334,51.0094932 228.72314,51.1711354 228.882008,51.3336898 C251.838812,74.8230661 251.407076,112.475134 227.917699,135.431937 L141.669016,220.705367 C135.515283,226.789517 125.639346,226.878366 119.377145,220.905915 L29.2022872,134.903418 L29.2022872,134.903418 C5.72285669,112.510373 4.84216732,75.3233838 27.2352125,51.8439533 C27.5552379,51.508402 27.8792248,51.1766514 28.2071051,50.8487711 C51.7880438,27.2678324 89.9434819,27.0210212 113.827505,50.2949292 L128.304862,64.4024638 Z" id="Path" fill="#FFFFFF"></path>
    </g>
</svg>

<svg width="256" height="256" xmlns="http://www.w3.org/2000/svg"><path d="M128.305 64.402l14.477-14.107c23.884-23.274 62.04-23.027 85.62.554.161.16.321.322.48.485 22.957 23.49 22.525 61.141-.964 84.098l-86.249 85.273c-6.154 6.085-16.03 6.173-22.292.2l-90.175-86.002c-23.48-22.393-24.36-59.58-1.967-83.059.32-.336.644-.667.972-.995 23.581-23.581 61.736-23.828 85.62-.554l14.478 14.107z" fill="#FFF" fill-rule="evenodd"/></svg>
